logos/reindex.svg

<?xml version="1.0" encoding="UTF-8" standalone="no"?>
<svg width="256px" height="266px" viewBox="0 0 256 266" version="1.1" xmlns="http://www.w3.org/2000/svg" xmlns:xlink="http://www.w3.org/1999/xlink" preserveAspectRatio="xMidYMid">
	<g>
		<path d="M229.382,209.176 L128,254.109 L26.616,209.176 C26.544,201.887 20.613,196 13.309,196 C5.96,196 0,201.96 0,209.309 C0,216.663 5.96,222.62 13.309,222.62 C16.701,222.62 19.799,221.35 22.147,219.261 L125.777,265.183 C127.251,265.83 128.855,265.783 130.221,265.183 L233.851,219.261 C236.197,221.35 239.295,222.62 242.69,222.62 C250.039,222.62 255.999,216.663 255.999,209.309 C255.999,201.96 250.039,196 242.69,196 C235.381,196 229.454,201.887 229.382,209.176 L229.382,209.176 Z" fill="#62BBE7"></path>
		<path d="M114.807643,107.166123 L11.2901621,153.044222 C10.0741667,153.582777 9.04301852,154.554974 8.46849316,155.864892 C7.24150681,158.646594 8.50846014,161.900905 11.2901621,163.124894 L125.885491,213.910938 C127.251363,214.511442 128.852041,214.564398 130.325823,213.912936 L233.870282,168.023847 C236.216344,170.111122 239.309788,171.38507 242.700987,171.38507 C250.04492,171.38507 256,165.42899 256,158.087056 C256,150.738127 250.04492,144.787043 242.700987,144.787043 C235.399019,144.787043 229.476912,150.670183 229.404971,157.952167 L128.105657,202.847078 L27.1050969,158.087056 L119.268958,117.236803 C121.618017,119.330074 124.712461,120.599026 128.105657,120.599026 C135.450589,120.599026 141.404671,114.643945 141.404671,107.299013 C141.404671,99.9510836 135.450589,94 128.105657,94 C120.801691,94 114.880583,99.8841389 114.807643,107.166123 L114.807643,107.166123 Z" fill="#62BBE7"></path>
		<path d="M125.777,51.467 L22.147,97.393 C19.799,95.3 16.701,94.03 13.309,94.03 C5.96,94.03 0,99.991 0,107.339 C0,114.694 5.96,120.649 13.309,120.649 C20.613,120.649 26.544,114.762 26.616,107.473 L128,62.546 L229.082,107.339 L136.838,148.221 C134.487,146.128 131.39,144.858 128,144.858 C120.645,144.858 114.69,150.817 114.69,158.168 C114.69,165.522 120.645,171.477 128,171.477 C135.306,171.477 141.23,165.59 141.307,158.3 L244.911,112.384 C246.128,111.848 247.16,110.872 247.736,109.562 C248.958,106.779 247.695,103.52 244.911,102.295 L130.221,51.471 C129.523,51.163 128.764,51 127.991,51 C127.251,51 126.498,51.15 125.777,51.467 L125.777,51.467 Z" fill="#78CBC8"></path>
		<path d="M125.778,0.466 L22.148,46.394 C19.799,44.305 16.702,43.033 13.31,43.033 C5.961,43.033 0,48.992 0,56.345 C0,63.695 5.961,69.65 13.31,69.65 C20.614,69.65 26.545,63.763 26.617,56.477 L128,11.543 L229.383,56.477 C229.455,63.763 235.382,69.65 242.69,69.65 C250.04,69.65 256,63.695 256,56.345 C256,48.992 250.04,43.033 242.69,43.033 C239.296,43.033 236.2,44.302 233.852,46.394 L130.222,0.468 C129.524,0.162 128.765,0 127.993,0 C127.252,0 126.5,0.149 125.778,0.466 L125.778,0.466 Z" fill="#78CBC8"></path>
	</g>
</svg>

<svg width="256" height="266" xmlns="http://www.w3.org/2000/svg" preserveAspectRatio="xMidYMid">
	<path d="M229.382 209.176 128 254.109 26.616 209.176C26.544 201.887 20.613 196 13.309 196 5.96 196 0 201.96 0 209.309c0 7.354 5.96 13.311 13.309 13.311 3.392 0 6.49-1.27 8.838-3.359l103.63 45.922c1.474.647 3.078.6 4.444 0l103.63-45.922a13.248 13.248 0 0 0 8.839 3.359c7.349 0 13.309-5.957 13.309-13.311 0-7.349-5.96-13.309-13.309-13.309-7.309 0-13.236 5.887-13.308 13.176Z" fill="#62BBE7"/>
	<path d="M114.808 107.166 11.29 153.044a5.509 5.509 0 0 0 0 10.08l114.595 50.787c1.366.6 2.967.653 4.44.002l103.545-45.89a13.245 13.245 0 0 0 8.831 3.362c7.344 0 13.299-5.956 13.299-13.298 0-7.349-5.955-13.3-13.299-13.3-7.302 0-13.224 5.883-13.296 13.165l-101.3 44.895-101-44.76 92.164-40.85a13.233 13.233 0 0 0 8.837 3.362c7.345 0 13.299-5.955 13.299-13.3 0-7.348-5.954-13.299-13.3-13.299-7.303 0-13.224 5.884-13.297 13.166Z" fill="#62BBE7"/>
	<path d="M125.777 51.467 22.147 97.393a13.239 13.239 0 0 0-8.838-3.363C5.96 94.03 0 99.991 0 107.339c0 7.355 5.96 13.31 13.309 13.31 7.304 0 13.235-5.887 13.307-13.176L128 62.546l101.082 44.793-92.244 40.882a13.249 13.249 0 0 0-8.838-3.363c-7.355 0-13.31 5.959-13.31 13.31 0 7.354 5.955 13.309 13.31 13.309 7.306 0 13.23-5.887 13.307-13.177l103.604-45.916a5.498 5.498 0 0 0 2.825-2.822 5.52 5.52 0 0 0-2.825-7.267l-114.69-50.824a5.491 5.491 0 0 0-4.444-.004Z" fill="#78CBC8"/>
	<path d="M125.778.466 22.148 46.394a13.259 13.259 0 0 0-8.838-3.361C5.961 43.033 0 48.992 0 56.345c0 7.35 5.961 13.305 13.31 13.305 7.304 0 13.235-5.887 13.307-13.173L128 11.543l101.383 44.934c.072 7.286 5.999 13.173 13.307 13.173 7.35 0 13.31-5.955 13.31-13.305 0-7.353-5.96-13.312-13.31-13.312-3.394 0-6.49 1.269-8.838 3.361L130.222.468A5.554 5.554 0 0 0 127.993 0c-.741 0-1.493.149-2.215.466Z" fill="#78CBC8"/>
</svg>
